assets/images/s2.svg

<svg width="34" height="33" viewBox="0 0 34 33" fill="none" xmlns="http://www.w3.org/2000/svg">
<g clip-path="url(#clip0_9_126)">
<path d="M33.46 16.37C33.46 19.6081 32.4996 22.7735 30.7004 25.4657C28.9012 28.158 26.344 30.2562 23.3522 31.4949C20.3604 32.7336 17.0684 33.0572 13.8927 32.4247C10.7169 31.7923 7.80009 30.2322 5.5111 27.9418C3.22212 25.6514 1.66382 22.7336 1.0333 19.5575C0.402794 16.3814 0.728402 13.0896 1.96894 10.0985C3.20948 7.10749 5.30922 4.55154 8.00257 2.75398C10.6959 0.956427 13.8619 -0.00197502 17.1 3.05578e-06C19.2492 2.65427e-06 21.3775 0.423498 23.363 1.24629C25.3485 2.06908 27.1525 3.27504 28.6718 4.79527C30.1911 6.3155 31.3959 8.12019 32.2175 10.1062C33.0391 12.0923 33.4613 14.2207 33.46 16.37Z" fill="white"/>
<path d="M14.83 26.5601V18.0001H12.06V14.2201H14.83V12.7501C14.83 10.2101 16.74 7.93005 19.08 7.93005H22.08V11.7101H19.08C18.75 11.7101 18.36 12.1101 18.36 12.7101V14.2101H22.13V18.0001H18.36V26.5601" fill="#232323"/>
</g>
<defs>
<clipPath id="clip0_9_126">
<rect width="32.73" height="32.73" fill="white" transform="translate(0.72998)"/>
</clipPath>
</defs>
</svg>

<svg width="34" height="33" fill="none" xmlns="http://www.w3.org/2000/svg"><g clip-path="url(#clip0_9_126)"><path d="M33.46 16.37A16.37 16.37 0 1117.1 0a16.36 16.36 0 0116.36 16.37z" fill="#fff"/><path d="M14.83 26.56V18h-2.77v-3.78h2.77v-1.47c0-2.54 1.91-4.82 4.25-4.82h3v3.78h-3c-.33 0-.72.4-.72 1v1.5h3.77V18h-3.77v8.56" fill="#232323"/></g><defs><clipPath id="clip0_9_126"><path fill="#fff" transform="translate(.73)" d="M0 0h32.73v32.73H0z"/></clipPath></defs></svg>
